X:106
T:Nancy Plym
M:6/8
L:1/8
B:Thompson's Compleat Collection of 200 Favourite Country Dances, vol. 3 (London, 1773)
Z:Transcribed and edited by Flynn Titford-Mock, 2007
Z:abc's:AK/Fiddler's Companion
K:E
e3 g2a | bge bge | B3 d2e | fdB fdB | e3 g2a | bge bge | cag fed | e3 E3 :|
|: E3 G2B | e=dc B^AG | F3 ^A2c | fed dcB | aga B2a | gfg c2a | gfe Bcd | e3 E3 :|

